src/images/footer/insta.svg

<svg width="26" height="26" viewBox="0 0 26 26" fill="none" xmlns="http://www.w3.org/2000/svg">
<path d="M13.2554 6.71099C9.7773 6.71099 6.97183 9.51645 6.97183 12.9946C6.97183 16.4727 9.7773 19.2782 13.2554 19.2782C16.7335 19.2782 19.539 16.4727 19.539 12.9946C19.539 9.51645 16.7335 6.71099 13.2554 6.71099ZM13.2554 17.0797C11.0078 17.0797 9.17026 15.2477 9.17026 12.9946C9.17026 10.7415 11.0023 8.90942 13.2554 8.90942C15.5085 8.90942 17.3406 10.7415 17.3406 12.9946C17.3406 15.2477 15.5031 17.0797 13.2554 17.0797ZM21.2617 6.45395C21.2617 7.2688 20.6054 7.91958 19.796 7.91958C18.9812 7.91958 18.3304 7.26333 18.3304 6.45395C18.3304 5.64458 18.9867 4.98833 19.796 4.98833C20.6054 4.98833 21.2617 5.64458 21.2617 6.45395ZM25.4234 7.94145C25.3304 5.97817 24.882 4.23911 23.4437 2.8063C22.0109 1.37349 20.2718 0.925049 18.3085 0.826611C16.2851 0.711768 10.2203 0.711768 8.19683 0.826611C6.23901 0.91958 4.49995 1.36802 3.06167 2.80083C1.62339 4.23364 1.18042 5.9727 1.08198 7.93599C0.967139 9.95942 0.967139 16.0243 1.08198 18.0477C1.17495 20.011 1.62339 21.75 3.06167 23.1829C4.49995 24.6157 6.23354 25.0641 8.19683 25.1625C10.2203 25.2774 16.2851 25.2774 18.3085 25.1625C20.2718 25.0696 22.0109 24.6211 23.4437 23.1829C24.8765 21.75 25.325 20.011 25.4234 18.0477C25.5382 16.0243 25.5382 9.96489 25.4234 7.94145ZM22.8093 20.2188C22.3828 21.2907 21.557 22.1165 20.4796 22.5485C18.8664 23.1883 15.0382 23.0407 13.2554 23.0407C11.4726 23.0407 7.63901 23.1829 6.0312 22.5485C4.95933 22.1219 4.13355 21.2961 3.70151 20.2188C3.06167 18.6055 3.20933 14.7774 3.20933 12.9946C3.20933 11.2118 3.06714 7.37817 3.70151 5.77036C4.12808 4.69849 4.95386 3.8727 6.0312 3.44067C7.64448 2.80083 11.4726 2.94849 13.2554 2.94849C15.0382 2.94849 18.8718 2.8063 20.4796 3.44067C21.5515 3.86724 22.3773 4.69302 22.8093 5.77036C23.4492 7.38364 23.3015 11.2118 23.3015 12.9946C23.3015 14.7774 23.4492 18.611 22.8093 20.2188Z" fill="#52525B"/>
</svg>

<svg width="26" height="26" fill="none" xmlns="http://www.w3.org/2000/svg"><path d="M13.255 6.711a6.274 6.274 0 00-6.283 6.284 6.274 6.274 0 006.283 6.283 6.274 6.274 0 006.284-6.283 6.274 6.274 0 00-6.284-6.284zm0 10.369a4.093 4.093 0 01-4.085-4.085 4.09 4.09 0 014.085-4.086 4.09 4.09 0 014.086 4.086 4.093 4.093 0 01-4.086 4.085zm8.007-10.626c0 .815-.657 1.466-1.466 1.466a1.466 1.466 0 111.466-1.466zm4.161 1.487c-.093-1.963-.541-3.702-1.98-5.135-1.432-1.433-3.171-1.881-5.135-1.98-2.023-.114-8.088-.114-10.111 0C6.239.92 4.5 1.369 3.062 2.802 1.623 4.234 1.18 5.973 1.082 7.936c-.115 2.023-.115 8.088 0 10.112.093 1.963.541 3.702 1.98 5.135 1.438 1.433 3.172 1.881 5.135 1.98 2.023.114 8.088.114 10.111 0 1.964-.093 3.703-.542 5.136-1.98 1.433-1.433 1.881-3.172 1.98-5.135.114-2.024.114-8.083 0-10.107zM22.81 20.22a4.135 4.135 0 01-2.33 2.33c-1.613.64-5.44.492-7.224.492-1.782 0-5.616.142-7.224-.492a4.136 4.136 0 01-2.33-2.33c-.64-1.614-.492-5.442-.492-7.224 0-1.783-.142-5.617.493-7.225a4.136 4.136 0 012.33-2.33c1.612-.64 5.44-.492 7.223-.492 1.783 0 5.617-.142 7.225.493a4.136 4.136 0 012.33 2.33c.64 1.613.492 5.44.492 7.224 0 1.782.147 5.616-.493 7.224z" fill="#52525B"/></svg>
